X: 20085
T: PRINCESS ROYAL. (A favorite English Song.)
C:
%R: air, reel
B: Elias Howe "The Musician's Companion" 1843 p.8 #5
S: http://imslp.org/wiki/The_Musician's_Companion_(Howe,_Elias)
Z: 2015 John Chambers <jc:trillian.mit.edu>
N: Added "pickup" rest to 2nd strain to fix the rhythms.
M: C
L: 1/8
K: Gm
% - - - - - - - - - - - - - - - - - - - - - - - - -
dc |\
B2AB Gddc | B2AB G2Bc |\
d2dc dgfe | .d2.c2 .B2.A2 |\
B2fB AcBA | GAGF D2dc |\
B2AG FGAB | G2G2 G2 :: z2 |\
gfga gfga |
bBcB g3a |\
bagf edcB | ABcA F4 |\
B2B2 c2c2 | defd g4 |\
f2B2 d4 | c2F2 c4 |\
B2AB GABc | d2DE D2dc |\
B2AG FGAB | G2G2 G2 :|
% - - - - - - - - - - - - - - - - - - - - - - - - -

%%sep 1 1 500

